X: 2
T: Statia Donelly's
M: 6/8
L: 1/8
R: jig
K: A Dorian
|: E |\ 
A^GA cBA | e^de ged | e/f/ge edG | Bec dBG |
A^GA cBA | e^de ged | edc BAB | cA^G A2 :|
|: E |\ 
A2 B cBA | c2 d ecA | G2 B dBG | dBG BA^G |
A2 B cBA | GBA G2 D | EDC B,^A,B, | CA,^G, A,2 :|
